X: 9
T:Ballydesmond Polkas
R:polka
Z: t
M:2/4
L:1/8
K:G
|:EA AB|cd e2|G>F GA|GE ED|
EA AB|cd e>f|ge dB|A2 A2:|
|:a>g ab|ag ef|g>f ga|ge ed|
ea ab|ag ef|ge dB|A2 A2:|
cd/c/ Bc/B/|AB/A/ G>A|B/c/d ed|g3d|
ea ge|dB GA/B/|ce dB|A2 A2:|
|:ea ag/e/|dg gd|ea ab|g>f gd|
ea ge|dB GA/B/|ce dB|A2 A2:|
